dist/static/illustrations/illustration_404.svg

<svg width="480" height="360" viewBox="0 0 480 360" fill="none" xmlns="http://www.w3.org/2000/svg">
<g id="Name=404, Shape=-">
<g id="&#240;&#159;&#165;&#173;illustrations" opacity="0.2">
<path id="background" fill-rule="evenodd" clip-rule="evenodd" d="M0 198.781C0 240.238 14.9454 278.016 39.539 306.566C67.7534 339.331 108.667 359.931 154.273 360C174.204 360.029 193.262 356.113 210.768 348.964C219.819 345.265 229.95 345.69 238.716 350.071C248.999 355.204 260.514 358.082 272.673 358.082C277.696 358.082 282.615 357.587 287.373 356.648C300.954 353.978 313.313 347.658 323.462 338.708C329.841 333.081 338.01 330.252 346.36 330.262H346.502C374.091 330.262 399.717 321.53 420.994 306.566C440.015 293.206 455.548 274.87 465.898 253.341C474.92 234.581 480 213.388 480 190.958C480 114.027 420.226 51.6534 346.502 51.6534C338.986 51.6534 331.622 52.3158 324.439 53.5518C305.418 21.4201 271.355 0 232.498 0C216.093 0 200.54 3.81769 186.619 10.6612C173.379 17.1483 161.608 26.3663 151.978 37.6C119.281 38.144 89.048 49.2899 64.303 67.8914C25.3514 97.1552 0 144.882 0 198.781Z" fill="url(#paint0_linear)"/>
</g>
<g id="#" filter="url(#filter0_d)">
<g id="#_2">
<circle id="Oval" opacity="0.15" cx="182.109" cy="97.6233" r="44.6233" fill="#FFC107"/>
<circle id="Oval_2" cx="182.109" cy="97.6233" r="23.4061" fill="url(#paint1_linear)"/>
</g>
<path id="Subtract" fill-rule="evenodd" clip-rule="evenodd" d="M244.878 306.611C279.438 306.611 307.453 278.595 307.453 244.036C307.453 209.476 279.438 181.46 244.878 181.46C210.319 181.46 182.303 209.476 182.303 244.036C182.303 278.595 210.319 306.611 244.878 306.611ZM244.878 283.425C266.632 283.425 284.267 265.79 284.267 244.036C284.267 222.281 266.632 204.646 244.878 204.646C223.124 204.646 205.489 222.281 205.489 244.036C205.489 265.79 223.124 283.425 244.878 283.425Z" fill="#005249"/>
<path id="Shape" fill-rule="evenodd" clip-rule="evenodd" d="M174.965 264.592C174.965 260.459 173.473 258.967 169.328 258.967H157.955V192.356C157.955 187.88 156.463 186.719 152.317 186.719H143.145C140.015 186.708 137.066 188.183 135.197 190.693L80.1665 258.967C78.7863 260.953 78.0987 263.338 78.2099 265.754V271.722C78.2099 275.867 79.7018 277.359 83.8352 277.359H138.511V299.066C138.511 303.199 140.003 304.691 144.136 304.691H152.256C156.402 304.691 157.894 303.199 157.894 299.066V277.359H169.328C173.742 277.359 174.965 275.867 174.965 271.722V264.592ZM102.545 258.967L138.511 214.552V258.967H102.545Z" fill="#00AB55"/>
<path id="Shape_2" fill-rule="evenodd" clip-rule="evenodd" d="M411.607 264.592C411.607 260.459 410.115 258.967 405.969 258.967H394.547V192.356C394.547 187.88 393.055 186.719 388.91 186.719H379.799C376.669 186.708 373.72 188.183 371.85 190.693L316.82 258.967C315.432 260.95 314.735 263.335 314.839 265.754V271.722C314.839 275.867 316.331 277.359 320.465 277.359H375.152V299.066C375.152 303.199 376.644 304.691 380.778 304.691H388.898C393.043 304.691 394.535 303.199 394.535 299.066V277.359H405.969C410.445 277.359 411.607 275.867 411.607 271.722V264.592ZM339.187 258.967L375.152 214.552V258.967H339.187Z" fill="#00AB55"/>
<path id="Path" opacity="0.24" d="M425.621 117.222C425.621 112.656 421.92 108.955 417.354 108.955C416.908 108.955 416.462 108.991 416.022 109.065C414.088 105.458 410.331 103.204 406.238 103.195H405.835C407.164 97.8534 405.047 92.247 400.519 89.1169C395.991 85.9868 389.998 85.9868 385.47 89.1169C380.942 92.247 378.825 97.8534 380.154 103.195H379.751C375.68 103.06 371.86 105.155 369.785 108.659C367.71 112.163 367.71 116.52 369.785 120.024C371.86 123.529 375.68 125.623 379.751 125.488H418.431V125.415C422.541 124.87 425.614 121.368 425.621 117.222Z" fill="#00AB55"/>
<path id="Path_2" opacity="0.24" d="M104.258 199.045C104.258 197.164 103.51 195.36 102.18 194.03C100.85 192.7 99.0459 191.953 97.1648 191.953C96.784 191.96 96.404 191.992 96.0275 192.05C94.3598 188.95 91.122 187.019 87.6018 187.024H87.2594C88.412 182.439 86.6012 177.62 82.7144 174.928C78.8275 172.236 73.6792 172.236 69.7924 174.928C65.9056 177.62 64.0947 182.439 65.2473 187.024H64.9049C61.409 186.899 58.1238 188.693 56.3388 191.701C54.5537 194.71 54.5537 198.453 56.3388 201.461C58.1238 204.469 61.409 206.263 64.9049 206.138H98.082V206.077C101.611 205.611 104.251 202.605 104.258 199.045Z" fill="#00AB55"/>
</g>
</g>
<defs>
<filter id="filter0_d" x="51" y="49" width="394.621" height="277.611" filterUnits="userSpaceOnUse" color-interpolation-filters="sRGB">
<feFlood flood-opacity="0" result="BackgroundImageFix"/>
<feColorMatrix in="SourceAlpha" type="matrix" values="0 0 0 0 0 0 0 0 0 0 0 0 0 0 0 0 0 0 127 0"/>
<feOffset dx="8" dy="8"/>
<feGaussianBlur stdDeviation="6"/>
<feColorMatrix type="matrix" values="0 0 0 0 0 0 0 0 0 0 0 0 0 0 0 0 0 0 0.12 0"/>
<feBlend mode="normal" in2="BackgroundImageFix" result="effect1_dropShadow"/>
<feBlend mode="normal" in="SourceGraphic" in2="effect1_dropShadow" result="shape"/>
</filter>
<linearGradient id="paint0_linear" x1="328.81" y1="424.032" x2="505.393" y2="26.0479" gradientUnits="userSpaceOnUse">
<stop stop-color="#00AB55"/>
<stop offset="1" stop-color="#00AB55" stop-opacity="0.01"/>
</linearGradient>
<linearGradient id="paint1_linear" x1="135.297" y1="97.6233" x2="182.109" y2="144.436" gradientUnits="userSpaceOnUse">
<stop stop-color="#FFE16A"/>
<stop offset="1" stop-color="#B78103"/>
</linearGradient>
</defs>
</svg>

<svg width="480" height="360" fill="none" xmlns="http://www.w3.org/2000/svg">
  <path fill-rule="evenodd" clip-rule="evenodd"
    d="M0 198.781c0 41.457 14.945 79.235 39.539 107.785 28.214 32.765 69.128 53.365 114.734 53.434a148.458 148.458 0 0056.495-11.036c9.051-3.699 19.182-3.274 27.948 1.107a75.774 75.774 0 0033.957 8.011c5.023 0 9.942-.495 14.7-1.434 13.581-2.67 25.94-8.99 36.089-17.94 6.379-5.627 14.548-8.456 22.898-8.446h.142c27.589 0 53.215-8.732 74.492-23.696 19.021-13.36 34.554-31.696 44.904-53.225C474.92 234.581 480 213.388 480 190.958c0-76.931-59.774-139.305-133.498-139.305-7.516 0-14.88.663-22.063 1.899C305.418 21.42 271.355 0 232.498 0a103.647 103.647 0 00-45.879 10.661c-13.24 6.487-25.011 15.705-34.641 26.939-32.697.544-62.93 11.69-87.675 30.291C25.351 97.155 0 144.882 0 198.781z"
    fill="url(#prefix__paint0_linear)" opacity=".2" />
  <g filter="url(#prefix__filter0_d)">
    <circle opacity=".15" cx="182.109" cy="97.623" r="44.623" fill="#FFC107" />
    <circle cx="182.109" cy="97.623" r="23.406" fill="url(#prefix__paint1_linear)" />
    <path fill-rule="evenodd" clip-rule="evenodd"
      d="M244.878 306.611c34.56 0 62.575-28.016 62.575-62.575 0-34.56-28.015-62.576-62.575-62.576-34.559 0-62.575 28.016-62.575 62.576 0 34.559 28.016 62.575 62.575 62.575zm0-23.186c21.754 0 39.389-17.635 39.389-39.389 0-21.755-17.635-39.39-39.389-39.39s-39.389 17.635-39.389 39.39c0 21.754 17.635 39.389 39.389 39.389z"
      fill="#005249" />
    <path fill-rule="evenodd" clip-rule="evenodd"
      d="M174.965 264.592c0-4.133-1.492-5.625-5.637-5.625h-11.373v-66.611c0-4.476-1.492-5.637-5.638-5.637h-9.172a9.866 9.866 0 00-7.948 3.974l-55.03 68.274a11.006 11.006 0 00-1.957 6.787v5.968c0 4.145 1.492 5.637 5.625 5.637h54.676v21.707c0 4.133 1.492 5.625 5.625 5.625h8.12c4.146 0 5.638-1.492 5.638-5.625v-21.707h11.434c4.414 0 5.637-1.492 5.637-5.637v-7.13zm-72.42-5.625l35.966-44.415v44.415h-35.966zM411.607 264.592c0-4.133-1.492-5.625-5.638-5.625h-11.422v-66.611c0-4.476-1.492-5.637-5.637-5.637h-9.111a9.87 9.87 0 00-7.949 3.974l-55.03 68.274a11.011 11.011 0 00-1.981 6.787v5.968c0 4.145 1.492 5.637 5.626 5.637h54.687v21.707c0 4.133 1.492 5.625 5.626 5.625h8.12c4.145 0 5.637-1.492 5.637-5.625v-21.707h11.434c4.476 0 5.638-1.492 5.638-5.637v-7.13zm-72.42-5.625l35.965-44.415v44.415h-35.965z"
      fill="#00AB55" />
    <path opacity=".24"
      d="M425.621 117.222a8.267 8.267 0 00-9.599-8.157 11.129 11.129 0 00-9.784-5.87h-.403a13.23 13.23 0 00-20.365-14.078 13.23 13.23 0 00-5.316 14.078h-.403a11.153 11.153 0 100 22.293h38.68v-.073a8.279 8.279 0 007.19-8.193zM104.258 199.045a7.093 7.093 0 00-7.093-7.092c-.381.007-.761.039-1.138.097a9.552 9.552 0 00-8.425-5.026h-.343a11.348 11.348 0 10-22.012 0h-.342a9.564 9.564 0 100 19.114h33.177v-.061a7.107 7.107 0 006.176-7.032z"
      fill="#00AB55" />
  </g>
  <defs>
    <linearGradient id="prefix__paint0_linear" x1="328.81" y1="424.032" x2="505.393" y2="26.048"
      gradientUnits="userSpaceOnUse">
      <stop stop-color="#00AB55" />
      <stop offset="1" stop-color="#00AB55" stop-opacity=".01" />
    </linearGradient>
    <linearGradient id="prefix__paint1_linear" x1="135.297" y1="97.623" x2="182.109" y2="144.436"
      gradientUnits="userSpaceOnUse">
      <stop stop-color="#FFE16A" />
      <stop offset="1" stop-color="#B78103" />
    </linearGradient>
    <filter id="prefix__filter0_d" x="51" y="49" width="394.621" height="277.611" filterUnits="userSpaceOnUse"
      color-interpolation-filters="sRGB">
      <feFlood flood-opacity="0" result="BackgroundImageFix" />
      <feColorMatrix in="SourceAlpha" values="0 0 0 0 0 0 0 0 0 0 0 0 0 0 0 0 0 0 127 0" />
      <feOffset dx="8" dy="8" />
      <feGaussianBlur stdDeviation="6" />
      <feColorMatrix values="0 0 0 0 0 0 0 0 0 0 0 0 0 0 0 0 0 0 0.12 0" />
      <feBlend in2="BackgroundImageFix" result="effect1_dropShadow" />
      <feBlend in="SourceGraphic" in2="effect1_dropShadow" result="shape" />
    </filter>
  </defs>
</svg>
